X:1
T:James Gibb editions
T:Miserere mei, Domine - Caldara
T:#
%%score [ 1 2 3 ] { ( 4 5 7 ) | 6 }
L:1/8
Q:1/4=84
M:4/4
K:C
V:1 treble nm="Soprano" snm="S"
V:2 treble nm="Alto" snm="A"
V:3 bass nm="Bass" snm="B"
V:4 treble nm="Organ"
V:5 treble 
V:7 treble 
V:6 bass 
V:1
"^Psalm 6:3""^Miserere mei, Domine""^Antonio Caldara\n(1670 -1736)" z4 B2 B2 | c4 B2 e2- | %2
w: Mi- se-|re- re me\-|
 e2 d2 (ed c2 | B6 A2 | ^G2 A4) G2 | A4 z2 (dc |[M:4/4] Bc d4 cB | A)Bcd B2 cB | A3 A ^G4 | %9
w: * i, Do\- * *||* * mi-|ne, quo\- *||* ni- am in- fir- mus, in-|fir- mus sum,|
 B2 B2 (c4- | c2 BA d4- | dG c4) B2 | c3 c B>B B2 | (dcB)A G3 G | c2 BA (d3 c | Bc d4) cc | %16
w: mi- se- re\-||* * * re|me- i, Do- mi- ne,|quo\- * * ni- am in-|fir- mus, in- fir\- *|* * * mus, in-|
 ^c4 d3 d | d2 ^cc =c4 | BG c4 B2 | c4 z4 | (dcB)A G3 G | (c3 B) A3 c | _B4 A4 | G4 F2 _BA | %24
w: fir- mus, in-|fir- mus, in- fir-|mus, in- fir- mus|sum,|quo\- * * ni- am in-|fir\- * mus, in-|fir- mus,|in- fir- mus, in-|
 (^G2 A4) G2 | !fermata!A8 ||[M:3/4][Q:1/4=90]"^andante"[Q:1/4=90][Q:1/4=90][Q:1/4=90] A2 c2 A2 | %27
w: fir\- * mus|sum.|Sa- na me,|
 (B2 E2 e2- | e2 dc d2 | c4) c2 | B6 | (A!courtesy!=GABcd | e3) d c2 |[M:3/4] z2 e2 e2 | e4 e2 | %35
w: Do\- * *||* mi-|ne,|quo\- * * * * *|* ni- am|con- tur-|ba- ta,|
 ^c3 c cc | d2 A2 A2 | A6- | A6 | A4 A2 | B2 e2 d2 | (c2 B2) A2 | (B6- | B6 | B6 | B2 A2 G2 | %46
w: con- tur- ba- ta|sunt, con- tur-|ba\-||* ta|sunt os- sa,|os\- * sa|me\-||||
 ^F6) | E2 e2 d2 | (c6- | c2 dc) (BA) | B2 A4 | G2 B2 G2 | (A2 D2 d2- | d2 cB c2 | B6 | c2 dc d2 | %56
w: |a, os- sa,|os\-|* * * sa *|me- a.|Sa- na me,|Do\- * *||||
 e6 | d3 ecd | G3) G G2 | (c3 Bcd | B3) A G2 | z2 G2 G2 | (G6- | G6 | ^G6) | A2 A2 A2 | A6- | A6 | %68
w: ||* mi- ne,|quo\- * * *|* ni- am|con- tur-|ba\-|||ta, con- tur-|ba\-||
 _B6 | A4 A2 | ^G4 G2 | A4 z2 | z2 d2 c2 | (B2 A2) G2 | (c6- | c6 | c2 B4) | c4 z2 | (G^FGAB^c | %79
w: ta,|con- tur-|ba- ta|sunt|os- sa,|os\- * sa|me\-|||a,|quo\- * * * * *|
 d3 d d2 | !courtesy!=c3 B A2 | _B4 B2 | A6 | A6 | ^G2 e2 d2 | (c2 B2) A2 | ^G6 | A6 | B6 | c6 | %90
w: * ni- am,|quo- ni- am|con- tur-|ba-|ta|sunt os- sa,|os\- * sa|me\-||||
 B2 c2 d2- | d2 cB c2- | c2 dcBA | ^G6 | A4 ^G2) | A2 c2 c2 | d4 d2 | d6- | !fermata!d6 | %99
w: |||||a, con- tur-|ba- ta|sunt||
 z2 c2 c2 | (B4 c2- | c2 B4) | !fermata!A6 |] %103
w: os- sa|me\- *||a.|
V:2
 E2 E2 F4 | E2 A4 ^G2 | (A4 ^G2 AF | D2 ED C4 | B,6) B,2 | A,4 (AG F2- |[M:4/4] F2 ED E)F G2- | %7
w: Mi- se- re-|re me- i,|Do\- * * *||* mi-|ne, quo\- * *|* * * * ni- am|
 G2 F4 E2- | E2 D2 E4 | z4 ^G2 G2 | (A6 =GF | G4) F4 | E2 ^F2 G>D D2 | z4 (GFE)D | C3 C (F4- | %15
w: * in- fir\-|* mus sum,|mi- se-|re\- * *|* re|me- i, Do- mi- ne,|quo\- * * ni-|am in- fir\-|
 F2 ED) E2 E2 | E4 F3 F | F2 EE D4 | D2 _E2 D3 D | C4 z2 (AG | F)E D3 D (G2- | GF) E3 E A2- | %22
w: * * * mus, in-|fir- mus, in-|fir- mus, in- fir-|mus, in- fir- mus|sum, quo\- *|* ni- am- in- fir\-|* * mus, in- fir\-|
 A2 G4 F2- | F2 E4 D2- | D2 C2 !courtesy!=B,3 B, | !fermata!A,8 ||[M:3/4] z6 | E2 G2 E2 | %28
w: * mus, in\-|* fir- mus,|* in- fir- mus|sum.||Sa- na me,|
 (^F2 B,2 B2- | B2 A^G A2- | A2) (^G^F) G2 | A4 A2 | G2 G2 G2 |[M:3/4] G6- | G6 | G4 G2 | F4 z2 | %37
w: Do\- * *||* mi\- * ne,|quo- ni-|am con- tur-|ba\-||* ta|sunt,|
 z2 F2 F2 | ^F4 F2 | ^D3 D DD | E4 z2 | z6 | z6 | z6 | z2 B2 A2 | (G2 ^F2) E2- | E2 ^D4 | E4 z2 | %48
w: con- tur-|ba- ta,|con- tur- ba- ta|sunt||||os- sa,|os\- * sa|* me-|a,|
 z2 A2 G2 | ^F2 F4 | (G4 ^F2) | G4 z2 | D2 !courtesy!=F2 D2 | (E2 A,2 A2- | A2 G^F G2- | %55
w: os- sa,|os- sa|me\- *|a.|Sa- na me,|Do\- * *||
 G2 !courtesy!=FE F2 | E4 A2- | A2 G2 F2 | E3) E E2 | (EDEFGA | D3) D D2 | z6 | z2 E2 E2 | D4 D2 | %64
w: |||* mi- ne,|quo\- * * * * *|* ni- am||con- tur-|ba- ta,|
 D3 D DD | ^C4 z2 | z2 ^C2 C2 | ^C4 C2 | ^C4 C2 | ^D4 D2 | =D3 D DD | !courtesy!=C4 z2 | z6 | z6 | %74
w: con- tur- ba- ta|sunt,|con- tur-|ba- ta,|con- tur-|ba- ta,|con- tur- ba- ta|sunt|||
 z2 G2 F2 | (E2 D2) C2 | D4 D2 | (CB,CDE^F | G3) G G2 | !courtesy!=F4 F2 | E2 E2 E2 | ^C6 | %82
w: os- sa,|os\- * sa|me- a,|quo\- * * * * *|* ni- am,|quo- ni-|am con- tur-|ba-|
 D2 D2 D2 | ^D4 D2 | E4 z2 | (A2 G2) F2 | E6- | E6 | E2 E2 D2 | (C2 B,2) A,2 | (^G,2 A,2 B,2 | C6 | %92
w: ta, con- tur-|ba- ta|sunt|os\- * sa|me\-||a, os- sa,|os\- * sa|me\- * *||
 D6- | D2 EDCB, | C2 B,4) | A,2 A2 A2 | A4 A2 | ^G6- | !fermata!G6 | z2 A2 ^F2 | (^G2 E2 A2- | %101
w: |||a, con- tur-|ba- ta|sunt||os- sa|me\- * *|
 A2 ^G4) | !fermata!A6 |] %103
w: |a.|
V:3
 z8 | z4 E,2 E,2 | F,4 E,2 A,2- | A,2 ^G,2 (A,A,,C,D, | E,2 ^D,2 E,3) E, | A,,2 (A,G, F,)E, D,2 | %6
w: |Mi- se-|re- re me\-|* i, Do\- * * *|* * * mi-|ne, quo\- * * ni- am|
[M:4/4] G,4 (C,D,) E,2 | F,4 G,4 | F,4 E,4 | z4 E,2 E,2 | (F,6 E,D, | E,4) D,4 | %12
w: in- fir\- * mus,|in- fir-|mus sum,|mi- se-|re\- * *|* re|
 C,2 A,,2 G,,>G,, G,,2 | z2 (G,F, E,)D, C,2- | C,C, F,4 E,D, | G,4 C2 C2 | _B,4 ^G,3 G, | %17
w: me- i, Do- mi- ne,|quo\- * * ni- am|* in- fir- mus, in-|fir- mus, in-|fir- mus, in-|
 A,2 A,,A, ^F,4 | =F,2 ^F,2 G,3 G, | C,2 (A,G, F,)E, D,2- | D,D, ((G,3 F,)) E,2- | %21
w: fir- mus, in- fir-|mus, in- fir- mus|sum, quo\- * * ni- am|* in- fir\- * mus|
 E,D, (C,3 B,,) A,,2 | (D,2 E,2) F,4 | ^C,4 D,4 | E,6 E,2 | !fermata!A,,8 ||[M:3/4] z6 | z6 | z6 | %29
w: * in- fir\- * mus,|in\- * fir-|mus, in-|fir- mus|sum.||||
 A,2 C2 A,2 | B,>B, E,4 | (F,E,F,G,A,B, | C3) C, C,2 |[M:3/4] z2 C2 C2 | _B,4 B,2 | A,3 A, A,A, | %36
w: Sa- na me,|Do- mi- ne,|quo\- * * * * *|* ni- am|con- tur-|ba- ta,|con- tur- ba- ta|
 D,4 z2 | z2 D2 D2 | C4 C2 | B,3 B, B,B, | E,4 z2 | z6 | z2 B,2 A,2 | (G,2 ^F,2) E,2 | %44
w: sunt,|con- tur-|ba- ta,|con- tur- ba- ta|sunt||os- sa,|os\- * sa|
 (^D,2 B,,2 D,2 | E,2 ^F,2 G,2 | A,2 B,4) | E,2 G,2 E,2 | A,4 A,,2 | D,4 D,2 | (G,2 C,2 D,2) | %51
w: me\- * *|||a, os- sa,|os- sa,|os- sa|me\- * *|
 G,,4 z2 | z6 | z6 | G,2 B,2 G,2 | (A,2 D,2 D2- | D2 CB, C2 | B,3 CA,B, | C3) C, C,2 | %59
w: a.|||Sa- na me,|Do\- * *|||* mi- ne,|
 (C,B,,C,D,E,F, | G,3) G, G,2 | z6 | z2 C2 C2 | B,4 B,2 | _B,3 B, B,B, | A,4 z2 | z2 A,2 A,2 | %67
w: quo\- * * * * *|* ni- am||con- tur-|ba- ta,|con- tur- ba- ta|sunt,|con- tur-|
 G,4 G,2 | ^F,4 F,2 | B,,4 B,,2 | E,3 E, E,E, | A,,2 A,2 G,2 | (F,2 E,2) D,2 | (G,6 | E,4 D,2 | %75
w: ba- ta,|con- tur-|ba- ta,|con- tur- ba- ta|sunt os- sa,|os\- * sa|me\-||
 C,2 D,2 E,2 | F,2 G,4) | C,4 z2 | z6 | (D,^C,D,E,!courtesy!=F,G, | A,3) A, A,2 | G,4 G,2 | ^F,6 | %83
w: ||a,||quo\- * * * * *|* ni- am|con- tur-|ba-|
 !courtesy!=F,6 | E,4 z2 | z6 | z2 E,2 D,2 | (C,2 B,,2) A,,2 | (^G,,6 | A,,3 B,,C,D, | E,4) E,2 | %91
w: ta|sunt||os- sa,|os\- * sa|me\-||* a,|
 z2 A,3 G, | (F,2 E,2) D,2 | (E,6 | A,2 D,2 E,2) | A,,2 A,,2 A,2 | F,4 F,2 | F,6- | !fermata!F,6 | %99
w: os- sa,|os\- * sa|me\-||a, con- tur-|ba- ta|sunt||
 z2 ^D,2 D,2 | E,6- | E,6 | !fermata!A,,6 |] %103
w: os- sa|me\-||a.|
V:4
 [CE]4 [DF]4 | A6 ^G2 | A4 [B,E^G]2 [CEA]2 | [DB]4- B2 A2 | [E^G]2 [^FA]2- A2 G2 | %5
 [EA]2 E2 [FA]2 d2- |[M:4/4] d6 cB | [CA]4 [B,G]4 | [A,A]4 [B,E^G]4 | [E^GB]4 [CGc]4- | %10
 [CAc]4 [FAd]4- | d2 c4 B2 | c4 B4 | z2 [B,D]2- [B,EG]2 [EGc]2- | [EGc]2 [CFA]2 [FAd]4- | %15
 [FBd]4 d2 c2 | ^c4 [FBd]4- | [Fd]2 [E^c]2 [DA=c]4 | B2 c4 B2 | [Gc]2 E2 [FA]2 [FAd]2- | %20
 [FAd]2 [DGB]4 B2 | cd e3 d c2 | _B4 A4 | [^A,G]4 [=A,F]2 [D_B][CA] | %24
 [!courtesy!=B,G]2 [CA]2- [B,A]2 [B,^G]2 | !fermata![CEA]8 ||[M:3/4] [CE]6 | [B,G]6 | ^F2 ^GA B2- | %29
 B2 A2 c2 | B6 | A6 | G4 c2 |[M:3/4] e6 | d6 | ^c6 | d2 A4 | f6 | [^FAd]6 | [^FA^d]6 | e2 B4 | %41
 [Ac]2 [GB]2 A2 | [^D^FB]6 | [EB]2 [^DA]2 [EG]2 | ^F2 ^D2 F2 | G2 A2 B2 | c2 B2 A2 | [EG]4 z2 | %48
 [CEA]6 | [A,D^F]6 | [B,DG]2 [EGA]2- [D!courtesy!^FA]2 | [DGB]6 | [=FA]6 | E4 A2- | A2 G2- [GB]2 | %55
 A4 B2 | e4 A2- | [Ad]2 G2 cd | G6 | c4- cA | B6 | B2 d2 B2 | c6 | d6- | d6 | ^c6 | [EA^ce]6- | %67
 [EAce]6 | [!courtesy!^F!courtesy!^A^ce]6 | ^d6 | d2 e2 d2 | !courtesy!=c4 B2 | A6 | B6 | [Cc]6- | %75
 c6 | [Ac]2 [GB]2- [FB]2 | c6 | [EGB]6 | [!courtesy!=FAd]6 | [EAc]6 | [^CE_B]6 | [D^FA]6 | %83
 [A,^DA]6 | [B,E^G]4 [GB]2 | [Ac]2 [!courtesy!=GB]2 A2 | [B,E^G]6 | [CEA]6 | [B,EB]6 | [CEA]6 | %90
 [^GB]2 [Ac]2 [Bd]2- | d2 c4- | [Dc]4 [DFB]2 | [E^G]6 | A4 x2 | [CEA]6 | [A,DA]6 | [B,D^G]6- | %98
 !fermata![B,DG]6 | z2 [C^FA]4 | [B,E^G]4 [CEA]2- | [CEA]2 [E^G]4 | !fermata![CEA]6 |] %103
V:5
 A,8 | [CE]4- [B,E]4 | E2 D2 x2 x2 | F2 E2- [CE]4 | B,4- [B,E]4 | C6 [FA]2- |[M:4/4] [FB]4 G2 G2- | %7
 G2 F4 E2- | E2 D2 x2 x2 | x2 x2 x2 x2 | x2 x2 x2 x2 | !courtesy!=G4 F4 | E2 [CF]2 [DG]4 | %13
 x2 x2 x2 x2 | x2 x2 x2 x2 | x2 x2 [EG]4- | [EG]4 x4 | A4 x2 x2 | [DG]2 [_EA]2 [DG]4 | E2 C4 x2 | %20
 x2 x2 x2 [EG]2- | [EG]4 [EA]4 | [FA]2 [CG]4- [CF]2 | F2 E4 F2 | E8 | x2 x2 x2 x2 || %26
[M:3/4] x2 x2 x2 | x2 x2 x2 | D6 | CD E2- [EA]2 | [DA]2 [E^G]2- [DG]2 | C4 F2 | [EG]6 | %33
[M:3/4] [EG]6- | [EG]6 | [EG]6 | [DF]6 | [FA]6 | x2 x2 x2 | x2 x2 x2 | [EG]6 | E4 ^FE | x2 x2 x2 | %43
 B,6 | B,6 | B,4 E2- | E2 ^D4 | B,6 | x2 x2 x2 | x2 x2 x2 | x2 x2 x2 | x2 x2 x2 | D6- | D2 C4 | %54
 B,C D4 | [CG]2 !courtesy!=F2 E2 | [EG]4 E2 | D2 D2 F2 | E6 | [EG]6 | [DG]6 | [DG]6 | [EG]6 | %63
 [DG]6- | [D!courtesy!^G]6 | [EA]6 | x2 x2 x2 | x2 x2 x2 | x2 x2 x2 | [^FAB]6 | [E^GB]6 | %71
 [EA]2 [CE]4 | [DF]6 | [DF]6 | G4 F2 | [EG]6 | D6 | [CE]2 [EG]4 | x2 x2 x2 | x2 x2 x2 | x2 x2 x2 | %81
 x2 x2 x2 | x2 x2 x2 | x2 x2 x2 | B,4 E2- | E4 !courtesy!=F2 | x2 x2 x2 | x2 x2 x2 | x2 x2 x2 | %89
 x2 x2 x2 | E6 | [EA]6- | A2 G2 x2 | B,2 C2 D2 | [CE]2 [B,F]2 [B,E^G]2 | x2 x2 x2 | x2 x2 x2 | %97
 x2 x2 x2 | x2 x2 x2 | x2 x2 x2 | x2 x2 x2 | x2 B,2 D2 | x2 x2 x2 |] %103
V:6
 A,,4 D,4 | A,,4 E,4 | F,4 E,2 A,2- | A,2 ^G,2 A,A,,C,D, | E,2 ^D,2 E,4 | A,,2 A,G, F,E, D,2 | %6
[M:4/4] G,4 C,D, E,2 | F,4 G,4 | F,4 E,4 | E,8 | F,6 E,D, | E,4 D,4 | C,2 A,,2 G,,4 | %13
 z2 G,F, E,D, C,2- | C,C, F,4 E,D, | G,4 C4 | _B,4 ^G,4 | A,2 A,,A, ^F,4 | %18
 !courtesy!=F,2 ^F,2 G,3 G, | C,2 A,G, F,E, D,2- | D,2 G,3 F, E,2- | E,D, C,3 B,, A,,2 | %22
 D,2 E,2 F,4 | ^C,4 D,4 | E,8 | !fermata!A,,8 ||[M:3/4] A,6 | E,6 | B,4 ^G,2 | A,2 C2 A,2 | %30
 B,2 E,4 | F,E,F,G,A,B, | C2 C,4 |[M:3/4] C6 | _B,6 | A,6 | D,6 | D6 | C6 | B,6 | E,6 | %41
 A,2 B,2 C2 | B,2 B,2 A,2 | G,2 ^F,2 E,2 | ^D,2 B,,2 D,2 | E,2 ^F,2 G,2 | A,2 B,2 B,,2 | E,6 | %48
 A,,6 | D,6 | G,2 C,2 D,2 | G,,6 | D,6 | A,4 ^F,2 | G,2 B,2 G,2 | A,2 D,2 D2- | D2 CB, C2 | %57
 B,4 A,B, | C4 C,2 | C,B,,C,D,E,F, | G,4 G,,2 | G,2 B,2 G,2 | C,4 C2 | B,6 | _B,6 | A,6- | A,6 | %67
 G,6 | ^F,6 | B,,6 | E,6 | A,,2 A,2 G,2 | F,2 E,2 D,2 | G,6 | E,4 D,2 | C,2 D,2 E,2 | %76
 F,2 G,2 G,,2 | C,3 B,,C,D, | E,6 | D,^C,D,E,!courtesy!=F,G, | A,6 | G,6 | ^F,6 | !courtesy!=F,6 | %84
 E,6 | A,,2 B,,C, D,2 | E,2 E,2 D,2 | C,2 B,,2 A,,2 | ^G,,6 | A,,6 | E,6 | A,,2 A,3 G, | %92
 F,2 E,2 D,2 | E,6 | A,2 D,2 E,2 | A,,6 | F,6 | F,6- | !fermata!F,6 | z2 ^D,4 | E,6- | E,6 | %102
 !fermata!A,,6 |] %103
V:7
 x8 | x8 | x8 | x8 | x8 | x8 |[M:4/4] x2 x2 EF x2 | x2 x2 x2 x2 | x2 x2 x2 x2 | x8 | x8 | x8 | x8 | %13
 x8 | x8 | x8 | x8 | x8 | x8 | x8 | x8 | x8 | x8 | x8 | x8 | x8 ||[M:3/4] x6 | x6 | x6 | x6 | x6 | %31
 x6 | x6 |[M:3/4] x6 | x6 | x6 | x6 | x6 | x6 | x6 | x6 | x6 | x6 | x6 | x6 | x6 | x6 | x6 | x6 | %49
 x6 | x6 | x6 | x6 | x6 | x6 | x6 | x6 | x6 | x6 | x6 | x6 | x6 | x6 | x6 | x6 | x6 | x6 | x6 | %68
 x6 | x6 | x6 | x6 | x6 | x6 | x6 | x6 | x6 | x6 | x6 | x6 | x6 | x6 | x6 | x6 | x6 | x6 | x6 | %87
 x6 | x6 | x2 x2 x2 | x2 x2 x2 | x6 | x6 | x6 | x6 | x6 | x6 | x6 | x6 | x6 | x6 | x6 | x6 |] %103

